static/images/board-room-logo-header.svg

<?xml version="1.0" encoding="UTF-8"?>
<svg width="284px" height="41px" viewBox="0 0 284 41" version="1.1" xmlns="http://www.w3.org/2000/svg" xmlns:xlink="http://www.w3.org/1999/xlink">
    <!-- Generator: sketchtool 42 (36781) - http://www.bohemiancoding.com/sketch -->
    <title>73DED138-BD7F-4DAD-80C0-0FC9BDAC72B2</title>
    <desc>Created with sketchtool.</desc>
    <defs></defs>
    <g id="Desktop" stroke="none" stroke-width="1" fill="none" fill-rule="evenodd">
        <g id="Desktop---Homepage" transform="translate(-379.000000, -5481.000000)">
            <g id="Board-room-logo-header" transform="translate(379.000000, 5481.000000)">
                <path d="M183.259598,38.2142671 C179.205169,38.2142671 177.403255,34.36702 177.403255,26.5056318 C177.403255,18.6442435 178.755056,14.8529494 182.75249,14.8529494 C186.750898,14.8529494 188.552325,18.6442435 188.552325,26.5056318 C188.552325,34.36702 187.144991,38.2142671 183.259598,38.2142671 M183.034541,13.1246788 C174.813155,13.1246788 169.4079,18.4213965 169.4079,26.6175376 C169.4079,34.8691494 174.47557,39.9425376 183.034541,39.9425376 C191.142425,39.9425376 196.604675,34.64582 196.604675,26.3942082 C196.604675,18.1980671 191.423989,13.1246788 183.034541,13.1246788" id="Fill-1" fill="#000000"></path>
                <path d="M213.047057,38.2142671 C208.992628,38.2142671 207.190714,34.36702 207.190714,26.5056318 C207.190714,18.6442435 208.542515,14.8529494 212.539949,14.8529494 C216.538357,14.8529494 218.339785,18.6442435 218.339785,26.5056318 C218.339785,34.36702 216.93245,38.2142671 213.047057,38.2142671 M212.822001,13.1246788 C204.600615,13.1246788 199.195359,18.4213965 199.195359,26.6175376 C199.195359,34.8691494 204.26303,39.9425376 212.822001,39.9425376 C220.929884,39.9425376 226.392134,34.64582 226.392134,26.3942082 C226.392134,18.1980671 221.211448,13.1246788 212.822001,13.1246788" id="Fill-3" fill="#000000"></path>
                <path d="M243.697672,38.0470353 C245.950187,37.9910824 246.513315,37.4894353 246.513315,36.0399647 L246.513315,22.4916353 C246.513315,19.1460353 245.27453,17.4177647 242.402866,17.4177647 C240.431916,17.4177647 239.249638,18.4770118 237.729288,20.0383882 L237.729288,36.0399647 C237.729288,37.4894353 238.235909,37.9910824 240.431916,38.0470353 L240.431916,39.4410353 L226.355161,39.4410353 L226.355161,38.0470353 C229.56441,37.9910824 230.240067,37.4894353 230.240067,36.0399647 L230.240067,18.1982118 C230.240067,16.5254118 229.56441,15.5221176 226.355161,15.4661647 L226.355161,14.0726471 L237.616272,13.5705176 L237.616272,18.4770118 C240.26288,15.5221176 243.360087,13.4031412 247.019936,13.4031412 C250.792314,13.4031412 253.044828,15.2987882 253.720485,18.7558118 C256.254564,15.7449647 259.745377,13.4031412 263.292698,13.4031412 C268.022784,13.4031412 270.275298,16.2466118 270.275298,21.4878588 L270.275298,36.0399647 C270.275298,37.4894353 270.894447,37.9910824 274.104183,38.0470353 L274.104183,39.4410353 L260.026941,39.4410353 L260.026941,38.0470353 C262.222948,37.9910824 262.786077,37.4894353 262.786077,36.0399647 L262.786077,22.4916353 C262.786077,19.1460353 261.716327,17.4177647 258.901171,17.4177647 C257.436842,17.4177647 255.522399,18.5329647 253.889521,20.3167059 C253.946029,20.8188353 254.002049,21.0976353 254.002049,21.4319059 L254.002049,36.0399647 C254.002049,37.4894353 254.565178,37.9910824 256.873713,38.0470353 L256.873713,39.4410353 L243.697672,39.4410353 L243.697672,38.0470353 Z" id="Fill-5" fill="#000000"></path>
                <path d="M22.3887479,26.1895941 C22.3887479,20.0468294 20.0768027,16.2497471 16.2980926,16.2497471 C14.5497633,16.2497471 13.2530086,16.9197353 11.6176947,18.1482882 L11.6176947,34.3423235 C12.8584288,36.9113353 14.606271,38.1953588 16.7496672,38.1953588 C20.6969262,38.1953588 22.3887479,33.7278059 22.3887479,26.1895941 L22.3887479,26.1895941 Z M4.17328988,35.2356412 L4.17328988,4.69064118 C4.17328988,2.95947647 3.55316638,2.01020588 0,1.95425294 L0,0.558323529 L11.6176947,0.000241176471 L11.6176947,16.5849824 C13.8736192,14.5745353 16.5801441,13.2345588 20.020295,13.2345588 C26.8440892,13.2345588 30.3967684,18.7068529 30.3967684,25.7429353 C30.3967684,33.8401941 25.6038422,39.9265235 17.5953345,39.9265235 C14.8888096,39.9265235 11.3921509,39.2005824 8.79815437,37.4694176 L5.3575163,40.5405588 L4.00425386,40.5405588 L4.17328988,35.2356412 Z" id="Fill-7" fill="#8A8B93"></path>
                <path d="M51.8466113,26.5244918 C51.8466113,18.6510447 50.0417743,14.8539624 46.0380075,14.8539624 C42.0337537,14.8539624 40.6804913,18.6510447 40.6804913,26.5244918 C40.6804913,34.3984212 42.4848412,38.2514565 46.5451156,38.2514565 C50.436354,38.2514565 51.8466113,34.3984212 51.8466113,26.5244918 M32.6724707,26.6359153 C32.6724707,18.4277153 38.0860075,13.1227976 46.3195719,13.1227976 C54.7226593,13.1227976 59.9111396,18.2039035 59.9111396,26.4130682 C59.9111396,34.6777035 54.4406079,39.9826212 46.3195719,39.9826212 C37.7479355,39.9826212 32.6724707,34.9010329 32.6724707,26.6359153" id="Fill-9" fill="#8A8B93"></path>
                <path d="M131.20196,34.9008882 L131.20196,17.7575824 C130.243277,16.1937941 128.607963,15.0211941 126.352038,15.0211941 C122.799359,15.0211941 120.543435,19.2094647 120.543435,26.4129235 C120.543435,32.2204529 122.911887,36.6320529 126.972162,36.6320529 C128.890014,36.6320529 130.074241,35.9615824 131.20196,34.9008882 M112.591922,27.0829118 C112.591922,19.6001706 117.328827,13.2345588 125.675407,13.2345588 C128.156875,13.2345588 129.623153,13.6252647 131.20196,14.2952529 L131.20196,4.69064118 C131.20196,2.95947647 130.581836,2.01020588 127.029157,1.95425294 L127.029157,0.558323529 L138.702385,0.000241176471 L138.702385,35.6827824 C138.702385,37.1901353 139.435524,38.1953588 142.650131,38.1953588 L142.650131,39.4239118 L131.314975,39.7586647 L131.314975,36.4641941 C129.510138,38.5301118 127.085664,39.9265235 123.87057,39.9265235 C116.764725,39.9265235 112.591922,34.5097 112.591922,27.0829118" id="Fill-11" fill="#8A8B93"></path>
                <path d="M77.5467115,34.0073294 C76.6445365,35.2918353 75.1217509,36.4089647 73.4299293,36.4089647 C70.9484611,36.4089647 69.5951986,34.6778 69.5951986,32.1087882 C69.5951986,28.4790824 71.343528,27.1386235 77.5467115,26.1893529 L77.5467115,34.0073294 Z M107.828516,13.4016941 C104.789765,13.4016941 102.032091,15.5751765 100.118622,18.5840941 L100.118622,13.6250235 L88.8638436,14.1261882 L88.8638436,15.5197059 C92.0716309,15.5751765 92.7468007,16.5779882 92.7468007,18.2498235 L92.7468007,36.0809647 C92.7468007,37.5299529 92.0716309,38.0311176 88.8638436,38.0870706 L88.8638436,38.0923765 C85.755919,38.0923765 84.9911163,37.5232 84.9911163,36.0004118 L84.9911163,22.4482235 C84.9911163,16.2499882 81.6634937,13.4016941 74.7271712,13.4016941 C69.9074525,13.4016941 66.4931197,14.3287765 64.6191094,15.8486706 L64.6269036,15.8534941 C63.6745537,16.5702706 63.0568659,17.7004235 63.0568659,18.9762471 C63.0568659,21.1444235 64.8319877,22.9016353 67.0211746,22.9016353 C69.2108487,22.9016353 70.9854834,21.1444235 70.9854834,18.9762471 C70.9854834,18.1697529 70.7394799,17.4206588 70.3181077,16.7969765 C70.1714799,16.5495294 70.0053667,16.3112471 69.8207424,16.0821294 C70.610389,15.4680941 71.8511232,15.0769059 73.2043856,15.0769059 C76.1934491,15.0769059 77.5467115,16.6406941 77.5467115,20.8289647 L77.5467115,24.5700941 C75.6858539,25.2400824 69.2566395,25.2400824 65.196365,27.4179059 C62.8279122,28.7024118 61.6436858,31.1035647 61.6436858,33.2813882 C61.6436858,36.5203882 63.956118,39.8708118 69.3136343,39.8708118 C72.8093187,39.8708118 75.5728384,38.0836941 77.7162346,35.7944471 L77.9417784,35.7944471 C78.6184096,38.5303529 79.3500871,39.4801059 82.9027664,39.4801059 L88.8638436,39.4801059 L89.3329551,39.4801059 L105.295898,39.4801059 L105.295898,38.0870706 C101.188372,37.9756471 100.231151,37.5299529 100.231151,36.0809647 L100.231151,20.2559294 C101.281902,18.7900588 102.697518,17.5677765 104.168667,17.1621176 C104.13749,17.3767647 104.116543,17.5943059 104.116543,17.8176353 C104.116543,20.2429059 106.005655,22.2084941 108.336111,22.2084941 C110.667055,22.2084941 112.555679,20.2429059 112.555679,17.8176353 C112.555679,15.7189176 111.157113,13.4016941 107.828516,13.4016941 L107.828516,13.4016941 Z" id="Fill-13" fill="#8A8B93"></path>
                <path d="M164.080294,13.4017906 C161.041542,13.4017906 158.283868,15.5752729 156.370887,18.5841906 L156.370887,13.6246376 L145.115621,14.1262847 L145.115621,15.51932 C148.323409,15.5752729 148.998578,16.5780847 148.998578,18.2494376 L148.998578,36.0810612 C148.998578,37.5295671 148.323409,38.0312141 145.115621,38.0871671 L145.115621,39.47972 L161.548163,39.47972 L161.548163,38.0871671 C157.44015,37.9757435 156.483415,37.5295671 156.483415,36.0810612 L156.483415,20.2555435 C157.534167,18.7896729 158.949783,17.5678729 160.420445,17.1622141 C160.389268,17.3768612 160.368321,17.5944024 160.368321,17.8177318 C160.368321,20.2430024 162.257433,22.2085906 164.587889,22.2085906 C166.918832,22.2085906 168.807457,20.2430024 168.807457,17.8177318 C168.807457,15.7185318 167.408891,13.4017906 164.080294,13.4017906" id="Fill-15" fill="#000000"></path>
                <path d="M283.570785,36.0460424 C283.595629,37.2736306 283.023732,38.1925129 282.094764,38.8547835 C280.751732,39.8122541 279.282044,39.8537365 277.859608,39.0472424 C276.217474,38.1158188 275.493104,35.8545482 276.803011,34.0727365 C278.076871,32.3401247 280.60754,32.1139012 282.146888,33.2691365 C283.062215,33.9555247 283.602936,34.8888776 283.570785,36.0460424" id="Fill-17" fill="#000000"></path>
            </g>
        </g>
    </g>
</svg>

<?xml version="1.0" encoding="UTF-8" standalone="no"?>
<svg
   xmlns:dc="http://purl.org/dc/elements/1.1/"
   xmlns:cc="http://creativecommons.org/ns#"
   xmlns:rdf="http://www.w3.org/1999/02/22-rdf-syntax-ns#"
   xmlns:svg="http://www.w3.org/2000/svg"
   xmlns="http://www.w3.org/2000/svg"
   xmlns:xlink="http://www.w3.org/1999/xlink"
   xmlns:sodipodi="http://sodipodi.sourceforge.net/DTD/sodipodi-0.dtd"
   xmlns:inkscape="http://www.inkscape.org/namespaces/inkscape"
   width="283.57214"
   height="50.485767"
   viewBox="0 0 283.57214 50.485767"
   version="1.1"
   id="svg5289"
   inkscape:version="0.91 r13725"
   sodipodi:docname="board-room-logo-header.svg">
  <metadata
     id="metadata5311">
    <rdf:RDF>
      <cc:Work
         rdf:about="">
        <dc:format>image/svg+xml</dc:format>
        <dc:type
           rdf:resource="http://purl.org/dc/dcmitype/StillImage" />
        <dc:title>73DED138-BD7F-4DAD-80C0-0FC9BDAC72B2</dc:title>
      </cc:Work>
    </rdf:RDF>
  </metadata>
  <sodipodi:namedview
     pagecolor="#ffffff"
     bordercolor="#666666"
     borderopacity="1"
     objecttolerance="10"
     gridtolerance="10"
     guidetolerance="10"
     inkscape:pageopacity="0"
     inkscape:pageshadow="2"
     inkscape:window-width="640"
     inkscape:window-height="480"
     id="namedview5309"
     showgrid="false"
     fit-margin-top="0"
     fit-margin-left="0"
     fit-margin-right="0"
     fit-margin-bottom="0"
     inkscape:zoom="2.962877"
     inkscape:cx="114.34316"
     inkscape:cy="29.986009"
     inkscape:current-layer="svg5289" />
  <!-- Generator: sketchtool 42 (36781) - http://www.bohemiancoding.com/sketch -->
  <title
     id="title5291">73DED138-BD7F-4DAD-80C0-0FC9BDAC72B2</title>
  <desc
     id="desc5293">Created with sketchtool.</desc>
  <defs
     id="defs5295">
    <mask
       id="mask-2"
       fill="white">
      <use
         height="100%"
         width="100%"
         y="0"
         x="0"
         xlink:href="#path-1"
         id="use5881" />
    </mask>
    <mask
       id="mask-4"
       fill="white">
      <use
         height="100%"
         width="100%"
         y="0"
         x="0"
         xlink:href="#path-3"
         id="use5887" />
    </mask>
    <mask
       id="mask-2-0"
       fill="white">
      <use
         height="100%"
         width="100%"
         y="0"
         x="0"
         xlink:href="#path-1"
         id="use5881-1" />
    </mask>
    <mask
       id="mask-4-1"
       fill="white">
      <use
         height="100%"
         width="100%"
         y="0"
         x="0"
         xlink:href="#path-3"
         id="use5887-9" />
    </mask>
  </defs>
  <g
     id="Desktop"
     style="fill:none;fill-rule:evenodd;stroke:none;stroke-width:1"
     transform="translate(0,-2.4117647e-4)">
    <g
       id="Desktop---Homepage"
       transform="translate(-379,-5481)">
      <g
         id="Board-room-logo-header"
         transform="translate(379,5481)">
        <path
           d="m 183.2596,38.214267 c -4.05443,0 -5.85635,-3.847247 -5.85635,-11.708635 0,-7.861388 1.35181,-11.652683 5.34924,-11.652683 3.99841,0 5.79983,3.791295 5.79983,11.652683 0,7.861388 -1.40733,11.708635 -5.29272,11.708635 m -0.22506,-25.089588 c -8.22139,0 -13.62664,5.296717 -13.62664,13.492859 0,8.251611 5.06767,13.325 13.62664,13.325 8.10788,0 13.57013,-5.296718 13.57013,-13.54833 0,-8.196141 -5.18068,-13.269529 -13.57013,-13.269529"
           id="Fill-1"
           inkscape:connector-curvature="0"
           style="fill:#000000" />
        <path
           d="m 213.04706,38.214267 c -4.05443,0 -5.85635,-3.847247 -5.85635,-11.708635 0,-7.861388 1.3518,-11.652683 5.34924,-11.652683 3.99841,0 5.79983,3.791295 5.79983,11.652683 0,7.861388 -1.40733,11.708635 -5.29272,11.708635 M 212.822,13.124679 c -8.22139,0 -13.62664,5.296717 -13.62664,13.492859 0,8.251611 5.06767,13.325 13.62664,13.325 8.10788,0 13.57013,-5.296718 13.57013,-13.54833 0,-8.196141 -5.18068,-13.269529 -13.57013,-13.269529"
           id="Fill-3"
           inkscape:connector-curvature="0"
           style="fill:#000000" />
        <path
           d="m 243.69767,38.047035 c 2.25252,-0.05595 2.81564,-0.5576 2.81564,-2.00707 l 0,-13.54833 c 0,-3.3456 -1.23878,-5.07387 -4.11044,-5.07387 -1.97095,0 -3.15323,1.059247 -4.67358,2.620623 l 0,16.001577 c 0,1.44947 0.50662,1.951117 2.70263,2.00707 l 0,1.394 -14.07676,0 0,-1.394 c 3.20925,-0.05595 3.88491,-0.5576 3.88491,-2.00707 l 0,-17.841753 c 0,-1.6728 -0.67566,-2.676094 -3.88491,-2.732047 l 0,-1.393518 11.26111,-0.502129 0,4.906494 c 2.64661,-2.954894 5.74382,-5.073871 9.40367,-5.073871 3.77237,0 6.02489,1.895647 6.70054,5.352671 2.53408,-3.010847 6.0249,-5.352671 9.57222,-5.352671 4.73008,0 6.9826,2.843471 6.9826,8.084718 l 0,14.552106 c 0,1.44947 0.61915,1.951117 3.82888,2.00707 l 0,1.394 -14.07724,0 0,-1.394 c 2.19601,-0.05595 2.75914,-0.5576 2.75914,-2.00707 l 0,-13.54833 c 0,-3.3456 -1.06975,-5.07387 -3.88491,-5.07387 -1.46433,0 -3.37877,1.1152 -5.01165,2.898941 0.0565,0.502129 0.11253,0.780929 0.11253,1.1152 l 0,14.608059 c 0,1.44947 0.56313,1.951117 2.87166,2.00707 l 0,1.394 -13.17604,0 0,-1.394 z"
           id="Fill-5"
           inkscape:connector-curvature="0"
           style="fill:#000000" />
        <path
           d="m 22.388748,26.189594 c 0,-6.142765 -2.311945,-9.939847 -6.090655,-9.939847 -1.74833,0 -3.045084,0.669988 -4.680398,1.898541 l 0,16.194035 c 1.240734,2.569012 2.988576,3.853036 5.131972,3.853036 3.947259,0 5.639081,-4.467553 5.639081,-12.005765 l 0,0 z m -18.2154581,9.046047 0,-30.5449998 C 4.1732899,2.9594765 3.5531664,2.0102059 0,1.9542529 L 0,0.55832353 11.617695,2.4117647e-4 l 0,16.58474082353 c 2.255924,-2.010447 4.962449,-3.350423 8.4026,-3.350423 6.823794,0 10.376473,5.472294 10.376473,12.508376 0,8.097259 -4.792926,14.183589 -12.801434,14.183589 -2.706524,0 -6.203183,-0.725942 -8.7971796,-2.457106 l -3.4406381,3.071141 -1.3532624,0 0.169036,-5.304918 z"
           id="Fill-7"
           inkscape:connector-curvature="0"
           style="fill:#8a8b93" />
        <path
           d="m 51.846611,26.524492 c 0,-7.873447 -1.804837,-11.67053 -5.808604,-11.67053 -4.004253,0 -5.357516,3.797083 -5.357516,11.67053 0,7.873929 1.80435,11.726965 5.864625,11.726965 3.891238,0 5.301495,-3.853036 5.301495,-11.726965 m -19.17414,0.111423 c 0,-8.2082 5.413536,-13.513117 13.647101,-13.513117 8.403087,0 13.591568,5.081105 13.591568,13.29027 0,8.264635 -5.470532,13.569553 -13.591568,13.569553 -8.571637,0 -13.647101,-5.081588 -13.647101,-13.346706"
           id="Fill-9"
           inkscape:connector-curvature="0"
           style="fill:#8a8b93" />
        <path
           d="m 131.20196,34.900888 0,-17.143306 c -0.95868,-1.563788 -2.594,-2.736388 -4.84992,-2.736388 -3.55268,0 -5.8086,4.188271 -5.8086,11.39173 0,5.807529 2.36845,10.219129 6.42872,10.219129 1.91785,0 3.10208,-0.670471 4.2298,-1.731165 m -18.61004,-7.817976 c 0,-7.482741 4.73691,-13.848353 13.08349,-13.848353 2.48147,0 3.94774,0.390706 5.52655,1.060694 l 0,-9.6046118 c 0,-1.7311647 -0.62012,-2.6804353 -4.1728,-2.7363883 l 0,-1.39592937 11.67322,-0.55808235353 0,35.68254082353 c 0,1.507353 0.73314,2.512577 3.94775,2.512577 l 0,1.228553 -11.33516,0.334753 0,-3.294471 c -1.80483,2.065918 -4.22931,3.46233 -7.4444,3.46233 -7.10584,0 -11.27865,-5.416824 -11.27865,-12.843612"
           id="Fill-11"
           inkscape:connector-curvature="0"
           style="fill:#8a8b93" />
        <path
           d="m 77.546711,34.007329 c -0.902175,1.284506 -2.42496,2.401636 -4.116782,2.401636 -2.481468,0 -3.83473,-1.731165 -3.83473,-4.300177 0,-3.629706 1.748329,-4.970164 7.951512,-5.919435 l 0,7.817976 z M 107.82852,13.401694 c -3.03875,0 -5.79643,2.173483 -7.7099,5.1824 l 0,-4.959071 -11.254776,0.501165 0,1.393518 c 3.207787,0.05547 3.882957,1.058282 3.882957,2.730118 l 0,17.831141 c 0,1.448988 -0.67517,1.950153 -3.882957,2.006106 l 0,0.0053 c -3.107925,0 -3.872728,-0.569176 -3.872728,-2.091964 l 0,-13.552189 c 0,-6.198235 -3.327622,-9.046529 -10.263945,-9.046529 -4.819718,0 -8.234051,0.927083 -10.108062,2.446977 l 0.0078,0.0048 c -0.95235,0.716777 -1.570038,1.846929 -1.570038,3.122753 0,2.168176 1.775122,3.925388 3.964309,3.925388 2.189674,0 3.964308,-1.757212 3.964308,-3.925388 0,-0.806494 -0.246003,-1.555588 -0.667375,-2.179271 -0.146628,-0.247447 -0.312741,-0.485729 -0.497366,-0.714847 0.789647,-0.614035 2.030381,-1.005223 3.383644,-1.005223 2.989063,0 4.342325,1.563788 4.342325,5.752059 l 0,3.741129 c -1.860857,0.669988 -8.290071,0.669988 -12.350346,2.847812 -2.368453,1.284506 -3.552679,3.685659 -3.552679,5.863482 0,3.239 2.312432,6.589424 7.669948,6.589424 3.495685,0 6.259204,-1.787118 8.402601,-4.076365 l 0.225543,0 c 0.676632,2.735906 1.408309,3.685659 4.960988,3.685659 l 5.961078,0 0.469111,0 15.96295,0 0,-1.393035 c -4.10753,-0.111424 -5.06475,-0.557118 -5.06475,-2.006106 l 0,-15.825036 c 1.05075,-1.46587 2.46637,-2.688153 3.93752,-3.093811 -0.0312,0.214647 -0.0521,0.432188 -0.0521,0.655517 0,2.425271 1.88912,4.390859 4.21957,4.390859 2.33095,0 4.21957,-1.965588 4.21957,-4.390859 0,-2.098717 -1.39857,-4.415941 -4.72716,-4.415941 l 0,0 z"
           id="Fill-13"
           inkscape:connector-curvature="0"
           style="fill:#8a8b93" />
        <path
           d="m 164.08029,13.401791 c -3.03875,0 -5.79642,2.173482 -7.7094,5.1824 l 0,-4.959553 -11.25527,0.501647 0,1.393035 c 3.20779,0.05595 3.88296,1.058765 3.88296,2.730118 l 0,17.831623 c 0,1.448506 -0.67517,1.950153 -3.88296,2.006106 l 0,1.392553 16.43254,0 0,-1.392553 c -4.10801,-0.111424 -5.06475,-0.5576 -5.06475,-2.006106 l 0,-15.825517 c 1.05076,-1.465871 2.46637,-2.687671 3.93703,-3.09333 -0.0312,0.214647 -0.0521,0.432188 -0.0521,0.655518 0,2.42527 1.88911,4.390859 4.21957,4.390859 2.33094,0 4.21957,-1.965589 4.21957,-4.390859 0,-2.0992 -1.39857,-4.415941 -4.72717,-4.415941"
           id="Fill-15"
           inkscape:connector-curvature="0"
           style="fill:#000000" />
        <path
           d="m 283.57078,36.046042 c 0.0249,1.227589 -0.54705,2.146471 -1.47602,2.808742 -1.34303,0.95747 -2.81272,0.998952 -4.23515,0.192458 -1.64214,-0.931423 -2.36651,-3.192694 -1.0566,-4.974506 1.27386,-1.732611 3.80453,-1.958835 5.34388,-0.803599 0.91532,0.686388 1.45605,1.619741 1.42389,2.776905"
           id="Fill-17"
           inkscape:connector-curvature="0"
           style="fill:#000000" />
      </g>
    </g>
  </g>
</svg>
